X:1
T:I piango et ella il volto
T:Lodovico Agostini
T:I piango et ella il volto
C:Lodovico Agostini
%%score [ 1 2 3 4 ]
L:1/8
Q:1/4=100
M:4/2
K:C
V:1 alto1 nm="Soprano" snm="S"
V:2 alto2 nm="Alto" snm="A"
V:3 alto nm="Tenor" snm="T"
V:4 bass3 nm="Bass" snm="B"
V:1
 z16 | ^G8 A8 | ^G4 z2 G2 A8 | ^G4 z2 A2 A4 A4 | B8 c4 c4 | c4 c4 d8- | d4 d4 c8 | %7
w: |I pian-|go, I pian-|go et el- la il|vol- to, Con|le sue man|_ m'a- sciu-|
 B4 z2 A2 B4 z2 d2 | ^c6 d2 B4 A4 | z2 A2 ^G4 A4 c4- | c2 c2 d4 ^c2 d2 B4 | A4 A6 A2 A4 | %12
w: ga e poi, e|poi so- spi- ra,|so- spi- ra, Dol-|* ce- men- te e s'a- di-|ra, Dol- ce- men-|
 A3 B c4 A8 | z4 B8 c4 | c8 c4 B4 | A4 A2 A4 A2 B4- | B2 A2 A6 ^G^F G4 | A4 A8 A4 | F8 E4 F4 | %19
w: te e s'a- di- ra,|Con pa-|ro- le che i|sas- si rom- per pon-||no, Con pa-|ro- le che i|
 G12 F4 | E4 D4 E8 | E8 z4 A4 | A4 A4 B8 | c4 c8 d4 | B2 c2 A6 ^G^F G4 |[M:3/2][Q:1/4=150] A8 z4 | %26
w: sas- si|rom- per pon-|no, E|do- po que-|sto si par-|te el- la e'l son- * * *|no,|
 A4 A4 A4 | B8 c4 | c8 d4 | B4 c4 A4- | A4 ^G2 ^F2 G4 | A12 |] %32
w: E do- po|que- sto|si par-|te el- la e'l son-||no.|
V:2
 z16 | E8 E8 | E4 E4 C2 B,2 C2 D2 | E6 E2 F4 ^F4 | G8 G4 A4 | A4 A4 _B8- | B4 _B4 A8 | %7
w: |I pian-|go, I pian- * * *|* go et el- la il|vol- to, Con|le sue man|_ m'a- sciu-|
 ^G4 z2 E2 =G4 z2 A2 | A6 A2 G4 ^F4 | z2 E2 E4 E4 A4- | A2 A2 A4 A2 ^F2 G4 | E4 F6 F2 F4 | %12
w: ga e poi, e|poi so- spi- ra,|so- spi- ra, Dol-|* ce- men- te e s'a- di-|ra, Dol- ce- men-|
 E2 F2 G8 ^F4 | z4 G8 G4 | A8 G4 G4 | E6 E2 D4 D4 | E16 | E4 F8 E4 | D8 ^C4 D4 | E8 D8 | %20
w: te e s'a- di- ra,|Con pa-|ro- le che i|sas- si rom- per|pon-|no, Con pa-|ro- le che i|sas- si|
 C4 A,4 B,8 | ^C8 z4 E4 | E4 E4 G8 | G4 A8 A4 | G4 C4 E8 |[M:3/2] E8 z4 | E4 E4 E4 | G8 G4 | %28
w: rom- per pon-|no, E|do- po que-|sto si par-|te el- la e'l son-|no,|E do- po|que- sto|
 A8 A4 | G8 C4 | E12 | E12 |] %32
w: si par-|te el- la e'l|son-|no.|
V:3
 z16 | B,8 C8 | B,4 z2 B,2 A,8 | B,4 z2 C2 C4 D4 | D8 E4 F4 | F4 F4 F8- | F4 G4 E8 | %7
w: |I pian-|go, I pian-|go et el- la il|vol- to, Con|le sue man|_ m'a- sciu-|
 E4 z2 C2 D4 z2 F2 | E6 D2 D4 D4 | z2 C2 B,4 A,4 F4- | F2 F2 D4 A,2 D2 G,4 | A,4 C6 C2 D4 | %12
w: ga e poi, e|poi so- spi- ra,|so- spi- ra, Dol-|* ce- men- te e s'a- di-|ra, Dol- ce- men-|
 ^C2 D2 E4 D8 | z4 D8 E4 | F8 E4 D4 | ^C6 C2 D4 B,4 | C8 B,8 | A,4 A,8 A,4 | A,8 A,4 A,4 | %19
w: te e s'a- di- ra,|Con pa-|ro- le che i|sas- si rom- per|pon- *|no, Con pa-|ro- le che i|
 C8 B,4 A,4 | G,4 A,8 ^G,4 | A,8 z4 C4 | C4 C4 D8 | E4 F8 F4 | E4 A,4 B,8 |[M:3/2] A,8 z4 | %26
w: sas- si rom-|per pon- *|no, E|do- po que-|sto si par-|te el- la e'l son-|no,|
 C4 C4 C4 | D8 E4 | F8 F4 | E8 A,4 | B,12 | A,12 |] %32
w: E do- po|que- sto|si par-|te el- la e'l|son-|no.|
V:4
 z16 | E,8 A,,8 | E,4 z2 E,2 F,8 | E,4 z2 A,2 F,4 D,4 | G,8 C,4 F,4 | F,4 F,4 _B,8- | B,4 G,4 A,8 | %7
w: |I pian-|go, I pian-|go et el- la il|vol- to, Con|le sue man|_ m'a- sciu-|
 E,4 z2 A,2 G,4 z2 D,2 | A,6 ^F,2 G,4 D,4 | z2 A,2 E,4 A,,4 z4 | z16 | z4 F,6 F,2 D,4 | %12
w: ga e poi, e|poi so- spi- ra,|so- spi- ra,||Dol- ce- men-|
 A,,2 D,2 C,4 D,8 | z4 G,8 C,4 | F,8 C,4 G,4 | A,6 A,2 ^F,4 G,4 | C,6 D,2 E,8 | A,,4 D,8 ^C,4 | %18
w: te e s'a- di- ra,|Con pa-|ro- le che i|sas- si rom- per|pon- * *|no, Con pa-|
 D,8 A,,4 D,4 | C,2 D,2 E,2 F,2 G,4 D,4 | E,4 F,4 E,8 | A,,8 z4 A,4 | A,4 A,4 G,8 | C,4 F,8 D,4 | %24
w: ro- le che i|sas- * * * * si|rom- per pon-|no, E|do- po que-|sto si par-|
 E,4 F,4 E,8 |[M:3/2] A,,8 z4 | A,4 A,4 A,4 | G,8 C,4 | F,8 D,4 | E,8 F,4 | E,12 | A,,12 |] %32
w: te el- la e'l son-|no,|E do- po|que- sto|si par-|te el- la e'l|son-|no.|

